X:165
T: Der grausame Bruder
N: Q0068J
O: Mitteleuropa, Deutschland / Frankreich, Lothringen,
R: Ballade, Schwangerschaft, Moral, Mord
M: 2/4
L: 1/8
K: G
D | DGGG | A3B | BdcB | A2
AB | c2cA | B2BA | G2F2 | E3
E | A2BA | G2cA | B2A2 | G2z

